Hatter-kde/status/24/notification-disabled-40-symbolic.svg

<?xml version="1.0" encoding="UTF-8" standalone="no"?>
<svg
   xmlns:dc="http://purl.org/dc/elements/1.1/"
   xmlns:cc="http://creativecommons.org/ns#"
   xmlns:rdf="http://www.w3.org/1999/02/22-rdf-syntax-ns#"
   xmlns:svg="http://www.w3.org/2000/svg"
   xmlns="http://www.w3.org/2000/svg"
   height="24"
   width="24"
   version="1.1"
   id="svg6">
  <metadata
     id="metadata12">
    <rdf:RDF>
      <cc:Work
         rdf:about="">
        <dc:format>image/svg+xml</dc:format>
        <dc:type
           rdf:resource="http://purl.org/dc/dcmitype/StillImage" />
        <dc:title />
      </cc:Work>
    </rdf:RDF>
  </metadata>
  <defs
     id="defs10" />
  <path
     style="overflow:visible;isolation:auto;mix-blend-mode:normal;fill:#f2f2f2;marker:none;opacity:1"
     d="M 6.3515625 4.7363281 L 5.4121094 5.6777344 L 10.830078 11.095703 L 9.5292969 11.095703 L 8.0332031 9.5996094 C 8.0198271 9.732866 8.0001481 9.8650714 8 10 C 8 10 7.9998436 15.000094 6.3398438 15.621094 C 6.3238437 15.632094 6.3177812 15.652062 6.3007812 15.664062 C 6.2374003 15.713292 6.1826211 15.772693 6.1386719 15.839844 C 6.1206719 15.866844 6.0999375 15.888016 6.0859375 15.916016 C 6.0313172 16.018995 6.0018673 16.133447 6 16.25 C 6 16.363636 6.335 17 6.75 17 L 17.25 17 C 17.363636 17 18 16.363636 18 16.25 C 17.9981 16.133447 17.968682 16.018995 17.914062 15.916016 C 17.900063 15.888016 17.878328 15.865844 17.861328 15.839844 C 17.817398 15.772684 17.762608 15.713282 17.699219 15.664062 C 17.683219 15.652062 17.677156 15.632094 17.660156 15.621094 C 16.000146 15.001094 16 10 16 10 C 15.998 8.177 14.765 6.4647656 13 6.0097656 L 13 6 C 13 5.4477153 12.552285 5 12 5 C 11.447715 5 11 5.4477153 11 6 L 11 6.0097656 C 10.180696 6.2215541 9.4837588 6.7100393 8.9648438 7.3496094 L 6.3515625 4.7363281 z M 10.066406 18 C 10.294135 18.881993 11.089083 19.49868 12 19.5 C 12.911645 19.499569 13.707636 18.882696 13.935547 18 L 10.066406 18 z "
     id="path2-6" />
</svg>

<?xml version="1.0" encoding="UTF-8"?>
<svg id="svg6" width="24" height="24" version="1.1" xmlns="http://www.w3.org/2000/svg" xmlns:cc="http://creativecommons.org/ns#" xmlns:dc="http://purl.org/dc/elements/1.1/" xmlns:rdf="http://www.w3.org/1999/02/22-rdf-syntax-ns#">
 <metadata id="metadata12">
  <rdf:RDF>
   <cc:Work rdf:about="">
    <dc:format>image/svg+xml</dc:format>
    <dc:type rdf:resource="http://purl.org/dc/dcmitype/StillImage"/>
    <dc:title/>
   </cc:Work>
  </rdf:RDF>
 </metadata>
 <path id="path2-6" d="m6.3516 4.7363-0.93945 0.94141 5.418 5.418h-1.3008l-1.4961-1.4961c-0.013376 0.13326-0.033055 0.26546-0.033203 0.40039 0 0-1.564e-4 5.0001-1.6602 5.6211-0.016 0.011-0.022063 0.030968-0.039063 0.042968-0.063381 0.04923-0.11816 0.10863-0.16211 0.17578-0.018 0.027-0.038734 0.048172-0.052734 0.076172-0.05462 0.10298-0.08407 0.21743-0.085938 0.33398 0 0.11364 0.335 0.75 0.75 0.75h10.5c0.11364 0 0.75-0.63636 0.75-0.75-0.0019-0.11655-0.031318-0.231-0.085938-0.33398-0.013999-0.028-0.035734-0.050172-0.052734-0.076172-0.04393-0.06716-0.09872-0.12656-0.16211-0.17578-0.016-0.012-0.022063-0.031968-0.039063-0.042968-1.66-0.62-1.6602-5.6211-1.6602-5.6211-2e-3 -1.823-1.235-3.5352-3-3.9902v-0.0097656c0-0.55228-0.44772-1-1-1s-1 0.44772-1 1v0.0097656c-0.8193 0.21179-1.5162 0.70027-2.0352 1.3398l-2.6133-2.6133zm3.7148 13.264c0.22773 0.88199 1.0227 1.4987 1.9336 1.5 0.91164-4.31e-4 1.7076-0.6173 1.9355-1.5h-3.8691z" color="#bebebe" fill="#fff" style="isolation:auto;mix-blend-mode:normal"/>
</svg>
